X:1
T:Title
%%score { ( 1 3 ) | ( 2 4 ) }
L:1/8
M:4/4
K:Ab
V:1 treble nm="Grand Piano"
V:3 treble 
V:2 bass 
V:4 bass 
V:1
 z4 z2[Q:1/4=106] E2 | F2 G2 A2 [DFB]2 | [CA]2 G2 z2 [Ee]2 | z4 z2 B2 |[M:3/4] [CA]4 z2 | %5
[M:1/4] B2 |[M:4/4] c2 e2 c2 B2 | A4 z2 c2 | B2 A2 G2 [=DF]2 |[M:3/4] E6 |[M:1/4] E2 | %11
[M:4/4] [EF]2 [DG]2 A2 B2 | c2 [Fd]2 [EB]2 [Ge]2 | z4 z2 .B2 | %14
[M:7/8] z2 G2 z z2[Q:1/4=104][Q:1/4=103][Q:1/4=101][Q:1/4=99][Q:1/4=98][Q:1/4=96][Q:1/4=94][Q:1/4=93][Q:1/4=91][Q:1/4=89][Q:1/4=88][Q:1/4=86][Q:1/4=84][Q:1/4=83][Q:1/4=81] |] %15
V:2
 z4 z2 [A,C]2 | [A,CE]2 [G,B,E]2 [F,C]2 B,,2 | z2 B,2 z2 [C,A,]2 | z EDC [E,A,E]2 .[E,G,E]2 | %4
[M:3/4] [A,,A,]4 z2 |[M:1/4] [E,G,E]2 |[M:4/4] [A,E]2 [G,B,E]2 [A,E]2 [E,G,E]2 | %7
 [F,A,C]4 z2 [F,A,=D]2 | [G,B,E]2 [A,CE]2 [B,E]2 [B,,A,]2 |[M:3/4] [E,G,]6 |[M:1/4] [C,A,]2 | %11
[M:4/4] [D,A,]2 [B,,B,]2 [F,A,C]2 [E,G,E]2 | [A,E]2 [D,A,]2 [E,G,]2 [C,G,]2 | %13
 A,,2 z F [C,G,]2 [D,B,]2 |[M:7/8] [E,CE]2 E z [A,,A,]3 |] %15
V:3
 x8 | x8 | E4 z4 | [Fd]cBA c2 z D |[M:3/4] x6 |[M:1/4] x2 |[M:4/4] x8 | x8 | x8 |[M:3/4] x6 | %10
[M:1/4] x2 |[M:4/4] x8 | x8 | [CFe]2 .[DGd]2 [=Ec]2 F-[FA] |[M:7/8] A2 z D [CA]3 |] %15
V:4
 x8 | x8 | E,4 z4 | [D,A,]2 [F,A,]2 z4 |[M:3/4] x6 |[M:1/4] x2 |[M:4/4] x8 | x8 | x8 |[M:3/4] x6 | %10
[M:1/4] x2 |[M:4/4] x8 | x8 | z2 B,,2 z4 |[M:7/8] z2 [E,B,]2 z z2 |] %15

